svg/fridge_industrial_off_outline.svg

<svg xmlns="http://www.w3.org/2000/svg" viewBox="0 0 24 24"><path d="M7.2 4 5.7 2.5c.35-.31.8-.5 1.3-.5h10a2 2 0 0 1 2 2v11.8l-2-2V4zm14.91 17.46-1.27 1.27-2.38-2.38c-.36.4-.88.65-1.46.65v1h-2v-1H9v1H7v-1a2 2 0 0 1-2-2V6.89L1.11 3l1.28-1.27zM17 18.89l-7-7V15H8v-5h.11L7 8.89V19h10z"/></svg>

<?xml version="1.0" encoding="UTF-8"?><!DOCTYPE svg PUBLIC "-//W3C//DTD SVG 1.1//EN" "http://www.w3.org/Graphics/SVG/1.1/DTD/svg11.dtd"><svg xmlns="http://www.w3.org/2000/svg" xmlns:xlink="http://www.w3.org/1999/xlink" version="1.1" id="mdi-fridge-industrial-off-outline" width="24" height="24" viewBox="0 0 24 24"><path d="M7.2 4L5.7 2.5C6.05 2.19 6.5 2 7 2H17C18.11 2 19 2.9 19 4V15.8L17 13.8V4H7.2M22.11 21.46L20.84 22.73L18.46 20.35C18.1 20.75 17.58 21 17 21V22H15V21H9V22H7V21C5.9 21 5 20.11 5 19V6.89L1.11 3L2.39 1.73L22.11 21.46M17 18.89L10 11.89V15H8V10H8.11L7 8.89V19H17V18.89Z" /></svg>
